swiss/communes/6215.svg

<svg xmlns="http://www.w3.org/2000/svg" xmlns:xlink="http://www.w3.org/1999/xlink" xml:space="preserve" width="500" height="600" viewBox="-2.5 -2.5 502 523"><path fill="#f00000" stroke="#000" stroke-width="8.03" d="M1.51-38v281c20.1 261 237 311 247 313 10-2.01 227-52.2 247-313V-38z"/><g id="a" stroke="#000"><path fill="#fff" stroke-width="4.014" d="M69.01 5.442c6.64 18.637 8.262 23.028 11.2 29.837 1.694-.473 2.231-.734 3.683-1.03-1.944 26.79-4.66 66.214-6.514 92.288-6.612 9.318-11.2 16.576-17.382 25.536-2.859 17.293-6.048 36.557-8.503 53.491 11.468 5.188 24.281 7.419 36.198 9.229 20.787 2.92 42.202 2.258 63.078 1.048 17.652-1.9 36.557-4.838 53.133-11.11-3.369-18.1-6.28-37.99-10.035-54.208-5.824-9.23-12.006-17.293-18.01-26.97-3.404-31.18-7.983-60.838-10.483-90.496 2.276 0 .137-.06 3.468.553 3.897-12.454 9.766-23.834 11.827-27.866-4.588-1.953-8.736-3.306-12.454-4.883-2.097 4.149-4.436 9.946-6.971 15.59-3.638-.913-9.14-1.908-13.082-2.885l2.598-15.68s-10.93-1.317-14.694-1.577l-2.132 15.68c-3.325-.194-15.053-.188-19.802.285l-1.362-16.128c-3.97.336-10.394 1.12-14.426 1.568l1.945 16.307c-4.319.875-7.312 1.514-13.261 3.145L81.142 2.113z"/><g stroke-width="1.165"><path fill="#040404" d="M98.668 103.868c.977-8.924 1.89-17.83 2.76-26.79a2352.78 2352.78 0 0 0 1.514-16.218 6.791 6.791 0 0 1 2.58-4.722c1.067-.817 2.402-1.308 3.737-1.245 1.173.053 2.311.525 3.225 1.263.914.74 1.595 1.738 2.025 2.831.74 1.873.729 3.952.713 5.968-.038 4.542-.049 9.05 0 13.619.095 8.933.422 17.83.976 26.79"/><path d="M140.78 103.868a488.14 488.14 0 0 1-.755-24.282c-.011-1.765-.012-3.52 0-5.286.018-2.643.066-5.286 0-7.93-.035-1.388-.1-2.768 0-4.157.114-1.577.457-3.172 1.254-4.534.876-1.487 2.339-2.67 4.032-3.02a5.45 5.45 0 0 1 4.193.873 5.426 5.426 0 0 1 2.222 3.656 1466.891 1466.891 0 0 0 4.408 41.843m-48.506 115.733a7020.38 7020.38 0 0 1 1.514-31.27c.231-4.597.467-9.23.693-13.799.164-3.342.357-6.81 1.953-9.766 1.246-2.303 3.297-4.122 5.636-5.287s4.964-1.702 7.58-1.765c3.18-.082 6.407.527 9.229 2.034 2.804 1.505 5.143 3.934 6.28 6.908.763 1.998.969 4.158 1.13 6.29.189 2.393.344 4.785.503 7.177.323 4.83.665 9.677 1.004 14.515.588 8.288 1.174 16.576 1.765 24.82"/></g><path fill="none" stroke-width="3.011" d="M53.958 189.884a185.886 185.886 0 0 0 21.952 6.317 186.907 186.907 0 0 0 32.256 4.274m-51.162-29.407a198.51 198.51 0 0 0 20.608 5.161 193.35 193.35 0 0 0 16.128 2.401m50.624 22.006c8.96-.905 17.92-2.303 26.79-4.184a252.382 252.382 0 0 0 29.479-8.19m-40.141-10.026a256.53 256.53 0 0 0 18.189-3.916 260.2 260.2 0 0 0 18.726-5.519m-94.259-7.589c-8.055-.183-16.038-1.263-23.923-3.208a109.891 109.891 0 0 1-18.906-6.585m84.045 8.897c5.609-.285 11.2-.873 16.755-1.765a157.019 157.019 0 0 0 31.629-8.557m-91.392 34.514-.88 14.874m87.792-7.706 3.396 16.755m-30.276-10.483 1.765 16.218m-8.037-15.322-1.254-16.576m26.342 11.2-2.894-18.816m-75.058-.896 1.389-19.264m46.099 5.824 1.64 11.917m-30.312-40.589 1.64 22.938m10.904-22.938-1.89 23.654m1.89-15.59 11.2 7.679m-33.6.385 9.587-7.553m-8.691 21.889-13.62-13.709 7.303-8.682 12.186 16.576m16.531.439 16.755-14.963 5.663 7.428-15.949 14.067m1.595 11.388 15.322-3.907 2.392 9.946-16.845 3.647m-33.125-10.582-15.59-.795-.977 11.2 16.038.838m-16.495 13.845-1.066 16.218M62.2 209.596l2.67-16.218m14.982-16.934-2.132 19.354m-10.95-22.042 3.558-19.085m112.564-.627 3.028 18.995m-29.908-44.083 18.01 27.06m-94.17 1.612 18.368-27.776m64.064-2.688-4.157-25.715m-17.347 29.299-2.141-25.894m-22.051 26.79 1.389-26.074m-22.893 23.386 2.643-25.805M78.06 125.372a165.173 165.173 0 0 0 48.742 6.55 165.532 165.532 0 0 0 49.46-8.432m-50.714-17.83V78.153m34.944-.09-2.769-25.805M94.188 78.242l1.64-25.715m54.808-1.613-3.647-21.862M124.652 49.48V27.709m-22.4 23.474 1.514-21.414M79.852 98.492a139.145 139.145 0 0 0 46.234 7.034 140.413 140.413 0 0 0 47.04-9.05M80.748 78.153h20.34m13.708 0h24.82m14.604 0h15.949M82.54 55.305a171.723 171.723 0 0 1 42.56-5.878 175.046 175.046 0 0 1 42.74 4.803m-12.724-23.476 3.826-15.142M136.3 27.977l2.446-15.77m-28.43.413 2.67 15.59M91.5 15.952l4.059 15.143m78.373-10.824c-15.59-5.842-33.69-8.709-50.355-8.673-17.562.034-32.973 3.217-49.28 9.766m94.259 12.168c-14.067-3.351-21.952-5.788-43.725-5.788-21.325 0-45.069 7.553-45.069 7.553"/></g><use xlink:href="#a" width="100%" height="100%" transform="translate(242)"/><use xlink:href="#a" width="100%" height="100%" transform="translate(122 279)"/></svg>

<svg xmlns="http://www.w3.org/2000/svg" xmlns:xlink="http://www.w3.org/1999/xlink" xml:space="preserve" width="500" height="600" viewBox="-2.5 -2.5 502 523"><path fill="#f00000" stroke="#000" stroke-width="8.03" d="M1.51-38v281c20.1 261 237 311 247 313 10-2.01 227-52.2 247-313V-38z"/><g id="a" stroke="#000"><path fill="#fff" stroke-width="4.014080000000001" d="M69.01 5.442c6.64 18.637 8.262 23.028 11.2 29.837 1.694-.473 2.231-.734 3.683-1.03-1.944 26.79-4.66 66.214-6.514 92.288-6.612 9.318-11.2 16.576-17.382 25.536-2.859 17.293-6.048 36.557-8.503 53.491 11.468 5.188 24.281 7.419 36.198 9.229 20.787 2.92 42.202 2.258 63.078 1.048 17.652-1.9 36.557-4.838 53.133-11.11-3.369-18.1-6.28-37.99-10.035-54.208-5.824-9.23-12.006-17.293-18.01-26.97-3.404-31.18-7.983-60.838-10.483-90.496 2.276 0 .137-.06 3.468.553 3.897-12.454 9.766-23.834 11.827-27.866-4.588-1.953-8.736-3.306-12.454-4.883-2.097 4.149-4.436 9.946-6.971 15.59-3.638-.913-9.14-1.908-13.082-2.885l2.598-15.68s-10.93-1.317-14.694-1.577l-2.132 15.68c-3.325-.194-15.053-.188-19.802.285l-1.362-16.128c-3.97.336-10.394 1.12-14.426 1.568l1.945 16.307c-4.319.875-7.312 1.514-13.261 3.145L81.142 2.113z"/><g stroke-width="1.3"><path fill="#040404" stroke-width="1.1648" d="M98.668 103.868c.977-8.924 1.89-17.83 2.76-26.79a2352.78 2352.78 0 0 0 1.514-16.218 6.791 6.791 0 0 1 2.58-4.722c1.067-.817 2.402-1.308 3.737-1.245 1.173.053 2.311.525 3.225 1.263.914.74 1.595 1.738 2.025 2.831.74 1.873.729 3.952.713 5.968-.038 4.542-.049 9.05 0 13.619.095 8.933.422 17.83.976 26.79"/><path stroke-width="1.1648" d="M140.78 103.868a488.14 488.14 0 0 1-.755-24.282c-.011-1.765-.012-3.52 0-5.286.018-2.643.066-5.286 0-7.93-.035-1.388-.1-2.768 0-4.157.114-1.577.457-3.172 1.254-4.534.876-1.487 2.339-2.67 4.032-3.02a5.45 5.45 0 0 1 4.193.873 5.426 5.426 0 0 1 2.222 3.656 1466.891 1466.891 0 0 0 4.408 41.843M107.628 216.764a7020.38 7020.38 0 0 1 1.514-31.27c.231-4.597.467-9.23.693-13.799.164-3.342.357-6.81 1.953-9.766 1.246-2.303 3.297-4.122 5.636-5.287s4.964-1.702 7.58-1.765c3.18-.082 6.407.527 9.229 2.034 2.804 1.505 5.143 3.934 6.28 6.908.763 1.998.969 4.158 1.13 6.29.189 2.393.344 4.785.503 7.177.323 4.83.665 9.677 1.004 14.515.588 8.288 1.174 16.576 1.765 24.82"/></g><path fill="none" stroke-width="3.01056" d="M53.958 189.884a185.886 185.886 0 0 0 21.952 6.317 186.907 186.907 0 0 0 32.256 4.274M57.004 171.068a198.51 198.51 0 0 0 20.608 5.161 193.35 193.35 0 0 0 16.128 2.401M144.364 200.636c8.96-.905 17.92-2.303 26.79-4.184a252.382 252.382 0 0 0 29.479-8.19M160.492 178.236a256.53 256.53 0 0 0 18.189-3.916 260.2 260.2 0 0 0 18.726-5.519M103.148 161.212c-8.055-.183-16.038-1.263-23.923-3.208a109.891 109.891 0 0 1-18.906-6.585M144.364 160.316c5.609-.285 11.2-.873 16.755-1.765a157.019 157.019 0 0 0 31.629-8.557M101.356 184.508l-.88 14.874M188.268 191.676l3.396 16.755M161.388 197.948l1.765 16.218M155.116 198.844l-1.254-16.576M180.204 193.468l-2.894-18.816M102.252 173.756l1.389-19.264M149.74 160.316l1.64 11.917M121.068 131.644l1.64 22.938M133.612 131.644l-1.89 23.654M133.612 139.708l11.2 7.679M111.212 147.772l9.587-7.553M112.108 162.108l-13.62-13.709 7.303-8.682 12.186 16.576M134.508 156.732l16.755-14.963 5.663 7.428-15.949 14.067M142.572 174.652l15.322-3.907 2.392 9.946-16.845 3.647M110.316 173.756l-15.59-.795-.977 11.2 16.038.838M93.292 198.844l-1.066 16.218M62.2 209.596l2.67-16.218M79.852 176.444l-2.132 19.354M66.77 173.756l3.558-19.085M182.892 154.044l3.028 18.995M156.012 128.956l18.01 27.06M79.852 157.628l18.368-27.776M162.284 127.164l-4.157-25.715M140.78 130.748l-2.141-25.894M116.588 131.644l1.389-26.074M95.084 128.956l2.643-25.805M78.06 125.372a165.173 165.173 0 0 0 48.742 6.55 165.532 165.532 0 0 0 49.46-8.432M125.548 105.66V78.153M160.492 78.063l-2.769-25.805M94.188 78.242l1.64-25.715M150.636 50.914l-3.647-21.862M124.652 49.48V27.709M102.252 51.183l1.514-21.414M79.852 98.492a139.145 139.145 0 0 0 46.234 7.034 140.413 140.413 0 0 0 47.04-9.05M80.748 78.153h20.34M114.796 78.153h24.82M154.22 78.153h15.949M82.54 55.305a171.723 171.723 0 0 1 42.56-5.878 175.046 175.046 0 0 1 42.74 4.803M155.116 30.754l3.826-15.142M136.3 27.977l2.446-15.77M110.316 12.62l2.67 15.59M91.5 15.952l4.059 15.143M173.932 20.271c-15.59-5.842-33.69-8.709-50.355-8.673-17.562.034-32.973 3.217-49.28 9.766M168.556 33.532c-14.067-3.351-21.952-5.788-43.725-5.788-21.325 0-45.069 7.553-45.069 7.553"/></g><use xlink:href="#a" width="100%" height="100%" transform="translate(242)"/><use xlink:href="#a" width="100%" height="100%" transform="translate(122 279)"/></svg>
